X: 32755
T: Polska For Marit Fält
R: waltz
M: 3/4
K: Dmajor
fe|:ed dc B/c/d|BA AF ED|B,A,/B,/ DC A,A|BA dc fe|
ed dc B/c/d|BA AF ED|ED/E/ FE/F/ GF/G/|1 Addc fe:|2 Addc d2|
|:F>G A2 F>G|AB A2 F>G|AB A2 FG/A/|BA/B/ cB/c/ d2|
F>G A2 F>G|AB A2 F>G|A/F/G/A/ B/G/A/B/ c/A/B/c/|d2 f2 e2:|

